flaticon/holiday/snowflake-2.svg

<svg xmlns="http://www.w3.org/2000/svg" width="32" height="32" viewBox="0 0 24 24">
    <path d="M 23.585938 11.585938 L 20.691406 11.585938 L 22.675781 8.9375 C 22.8125 8.753906 22.777344 8.496094 22.59375 8.359375 C 22.410156 8.222656 22.152344 8.257812 22.015625 8.441406 L 19.65625 11.585938 L 15.878906 11.585938 C 15.757812 10.84375 15.433594 10.167969 14.957031 9.625 L 17.707031 6.878906 L 21.597656 7.433594 C 21.617188 7.4375 21.636719 7.441406 21.65625 7.441406 C 21.859375 7.441406 22.035156 7.289062 22.066406 7.085938 C 22.097656 6.859375 21.941406 6.648438 21.714844 6.617188 L 18.4375 6.148438 L 20.484375 4.101562 C 20.648438 3.9375 20.648438 3.675781 20.484375 3.515625 C 20.324219 3.351562 20.0625 3.351562 19.902344 3.515625 L 17.851562 5.5625 L 17.382812 2.285156 C 17.351562 2.058594 17.140625 1.902344 16.914062 1.933594 C 16.691406 1.96875 16.53125 2.175781 16.566406 2.402344 L 17.121094 6.296875 L 14.351562 9.0625 C 13.800781 8.648438 13.136719 8.375 12.414062 8.296875 L 12.414062 4.757812 L 15.558594 2.398438 C 15.742188 2.261719 15.777344 2.003906 15.640625 1.820312 C 15.503906 1.636719 15.246094 1.601562 15.0625 1.738281 L 12.414062 3.722656 L 12.414062 0.414062 C 12.414062 0.183594 12.230469 0 12 0 C 11.769531 0 11.585938 0.183594 11.585938 0.414062 L 11.585938 3.722656 L 8.9375 1.738281 C 8.753906 1.601562 8.496094 1.636719 8.359375 1.820312 C 8.222656 2.003906 8.257812 2.261719 8.441406 2.398438 L 11.585938 4.757812 L 11.585938 8.296875 C 10.929688 8.367188 10.320312 8.597656 9.796875 8.953125 L 7.171875 6.328125 L 7.730469 2.4375 C 7.761719 2.210938 7.605469 2 7.378906 1.96875 C 7.152344 1.9375 6.941406 2.09375 6.910156 2.320312 L 6.441406 5.597656 L 4.101562 3.253906 C 3.9375 3.09375 3.675781 3.09375 3.515625 3.253906 C 3.351562 3.417969 3.351562 3.679688 3.515625 3.839844 L 5.855469 6.179688 L 2.578125 6.648438 C 2.351562 6.683594 2.195312 6.890625 2.226562 7.117188 C 2.257812 7.324219 2.433594 7.472656 2.636719 7.472656 C 2.65625 7.472656 2.675781 7.472656 2.695312 7.46875 L 6.585938 6.914062 L 9.164062 9.492188 C 8.625 10.054688 8.25 10.78125 8.121094 11.585938 L 4.757812 11.585938 L 2.398438 8.441406 C 2.261719 8.257812 2.003906 8.222656 1.820312 8.359375 C 1.636719 8.496094 1.601562 8.753906 1.738281 8.9375 L 3.722656 11.585938 L 0.414062 11.585938 C 0.183594 11.585938 0 11.773438 0 12 C 0 12.226562 0.183594 12.414062 0.414062 12.414062 L 3.722656 12.414062 L 1.738281 15.0625 C 1.601562 15.246094 1.636719 15.503906 1.820312 15.640625 C 1.894531 15.695312 1.980469 15.722656 2.070312 15.722656 C 2.195312 15.722656 2.320312 15.667969 2.398438 15.558594 L 4.757812 12.414062 L 8.078125 12.414062 C 8.121094 13.21875 8.40625 13.960938 8.863281 14.570312 C 8.847656 14.582031 8.828125 14.589844 8.8125 14.605469 L 6.585938 16.828125 L 2.695312 16.273438 C 2.46875 16.242188 2.257812 16.398438 2.226562 16.621094 C 2.195312 16.847656 2.351562 17.058594 2.578125 17.089844 L 5.855469 17.558594 L 3.515625 19.898438 C 3.351562 20.0625 3.351562 20.324219 3.515625 20.484375 C 3.59375 20.566406 3.703125 20.605469 3.808594 20.605469 C 3.914062 20.605469 4.019531 20.566406 4.101562 20.484375 L 6.441406 18.144531 L 6.910156 21.421875 C 6.9375 21.628906 7.113281 21.777344 7.316406 21.777344 C 7.335938 21.777344 7.355469 21.777344 7.378906 21.773438 C 7.601562 21.742188 7.761719 21.53125 7.726562 21.304688 L 7.171875 17.414062 L 9.394531 15.1875 C 9.40625 15.179688 9.40625 15.167969 9.414062 15.160156 C 10.007812 15.679688 10.757812 16.027344 11.585938 16.117188 L 11.585938 19.65625 L 8.441406 22.015625 C 8.257812 22.152344 8.222656 22.410156 8.359375 22.59375 C 8.441406 22.703125 8.5625 22.757812 8.691406 22.757812 C 8.777344 22.757812 8.863281 22.730469 8.9375 22.675781 L 11.585938 20.691406 L 11.585938 23.585938 C 11.585938 23.816406 11.769531 24 12 24 C 12.230469 24 12.414062 23.816406 12.414062 23.585938 L 12.414062 20.691406 L 15.0625 22.675781 C 15.136719 22.730469 15.222656 22.757812 15.308594 22.757812 C 15.4375 22.757812 15.558594 22.703125 15.640625 22.59375 C 15.777344 22.410156 15.742188 22.152344 15.558594 22.015625 L 12.414062 19.65625 L 12.414062 16.117188 C 13.339844 16.019531 14.171875 15.597656 14.792969 14.96875 L 17.128906 17.375 L 16.5625 21.335938 C 16.53125 21.5625 16.6875 21.773438 16.914062 21.804688 C 16.933594 21.808594 16.957031 21.808594 16.976562 21.808594 C 17.175781 21.808594 17.355469 21.660156 17.382812 21.453125 L 17.859375 18.125 L 19.894531 20.222656 C 19.976562 20.304688 20.085938 20.347656 20.191406 20.347656 C 20.296875 20.347656 20.402344 20.308594 20.480469 20.230469 C 20.644531 20.070312 20.648438 19.808594 20.488281 19.644531 L 18.488281 17.585938 L 21.714844 17.125 C 21.941406 17.089844 22.097656 16.882812 22.066406 16.65625 C 22.035156 16.429688 21.824219 16.269531 21.597656 16.304688 L 17.773438 16.851562 L 15.3125 14.316406 C 15.667969 13.761719 15.882812 13.109375 15.921875 12.414062 L 19.65625 12.414062 L 22.015625 15.558594 C 22.09375 15.667969 22.21875 15.722656 22.34375 15.722656 C 22.433594 15.722656 22.519531 15.695312 22.59375 15.640625 C 22.777344 15.503906 22.8125 15.242188 22.675781 15.0625 L 20.691406 12.414062 L 23.585938 12.414062 C 23.816406 12.414062 24 12.226562 24 12 C 24 11.773438 23.816406 11.585938 23.585938 11.585938 Z M 12 15.308594 C 10.289062 15.308594 8.898438 13.917969 8.898438 12.207031 C 8.898438 10.496094 10.289062 9.101562 12 9.101562 C 13.710938 9.101562 15.101562 10.496094 15.101562 12.207031 C 15.101562 13.917969 13.710938 15.308594 12 15.308594 Z M 12 15.308594"/>
</svg>

<svg xmlns="http://www.w3.org/2000/svg" width="32" height="32" viewBox="0 0 24 24">
    <path d="M23.586 11.586H20.69l1.985-2.649a.412.412 0 0 0-.082-.578.412.412 0 0 0-.578.082l-2.36 3.145H15.88a3.926 3.926 0 0 0-.922-1.961l2.75-2.746 3.89.555c.02.003.04.007.06.007a.414.414 0 0 0 .059-.824l-3.279-.469 2.047-2.046a.41.41 0 0 0 0-.586.406.406 0 0 0-.582 0l-2.05 2.046-.47-3.277a.414.414 0 0 0-.468-.351.414.414 0 0 0-.348.468l.555 3.895-2.77 2.766a3.922 3.922 0 0 0-1.937-.766v-3.54l3.145-2.359a.412.412 0 0 0 .082-.578.412.412 0 0 0-.579-.082l-2.648 1.985V.414A.412.412 0 0 0 12 0a.412.412 0 0 0-.414.414v3.309L8.937 1.738a.412.412 0 0 0-.578.082.412.412 0 0 0 .082.578l3.145 2.36v3.539a3.92 3.92 0 0 0-1.79.656L7.173 6.328l.558-3.89a.414.414 0 0 0-.82-.118l-.469 3.278-2.34-2.344a.417.417 0 0 0-.585 0 .41.41 0 0 0 0 .586l2.34 2.34-3.278.468a.417.417 0 0 0-.351.47.415.415 0 0 0 .41.355c.02 0 .039 0 .058-.004l3.89-.555 2.58 2.578a3.927 3.927 0 0 0-1.044 2.094H4.758L2.398 8.44a.412.412 0 0 0-.578-.082.412.412 0 0 0-.082.579l1.985 2.648H.414a.414.414 0 0 0 0 .828h3.309l-1.985 2.649a.412.412 0 0 0 .332.66.4.4 0 0 0 .328-.164l2.36-3.145h3.32c.043.805.328 1.547.785 2.156-.015.012-.035.02-.05.035l-2.227 2.223-3.89-.555a.415.415 0 0 0-.47.348.414.414 0 0 0 .352.469l3.277.469-2.34 2.34a.41.41 0 0 0 0 .585.404.404 0 0 0 .294.121.41.41 0 0 0 .293-.12l2.34-2.34.468 3.277a.409.409 0 0 0 .406.355c.02 0 .04 0 .063-.004a.412.412 0 0 0 .348-.468l-.555-3.89 2.223-2.227c.011-.008.011-.02.02-.028a3.94 3.94 0 0 0 2.17.957v3.54l-3.144 2.359a.412.412 0 0 0 .25.742.414.414 0 0 0 .246-.082l2.649-1.985v2.895c0 .23.184.414.414.414.23 0 .414-.184.414-.414V20.69l2.649 1.985a.414.414 0 0 0 .496-.66l-3.145-2.36v-3.539a3.922 3.922 0 0 0 2.379-1.148l2.336 2.406-.567 3.96a.414.414 0 0 0 .82.118l.477-3.328 2.036 2.098a.424.424 0 0 0 .296.125.414.414 0 0 0 .297-.703l-2-2.06 3.227-.46a.417.417 0 0 0 .351-.469.412.412 0 0 0-.468-.351l-3.825.547-2.46-2.536c.355-.554.57-1.207.609-1.902h3.734l2.36 3.145a.417.417 0 0 0 .578.082.412.412 0 0 0 .082-.579l-1.985-2.648h2.895a.414.414 0 0 0 0-.828zM12 15.309a3.104 3.104 0 0 1 0-6.207 3.104 3.104 0 0 1 0 6.207zm0 0"/>
</svg>
